X:953
T:When you meet a pretty girl
T:Fy gar rub her o'er wi' straw
R:Air/Song
O:Ireland
B:Riley's Flute Melodies 2 p54
B:Musical Museum n16
B:Aird's Airs and Melodies vol 2  -4 part (?)
B:O'Neill's 146
S:My arrangement from various sources
Z:Transcription, arrangement, chords:Mike Long
M:C
L:1/8
K:Bb
A2|\
"Gm"B3A G2d2|"F"cdBc A2GF|"Gm"B>ABc d2g2|"Gm"dc"F"BA "Gm"G2:|\
g2|\
"Bb"f2d2 d2cB|"F"A>Bcd A2GF|
"Bb"f2d2 d3f|"Eb"gfdf g2b2|\
"Bb"f2d2 d2cB|"F"A>Bcd A2GF|"Gm"B>ABc d2g2|"Gm"dc"F"BA "Gm"G2|]
